build/category/SourceSolid.svg

<svg xmlns="http://www.w3.org/2000/svg" fill="none" viewBox="0 0 24 24" focusable="false"><path d="M0 0H24V24H0z"/><path fill="#74767B" fill-rule="evenodd" d="M2 5C2 3.34315 3.34315 2 5 2L19 2C20.6569 2 22 3.34315 22 5L22 19C22 20.6569 20.6569 22 19 22L5 22C3.34315 22 2 20.6569 2 19L2 5ZM15.3396 16.2863C15.1596 16.2863 14.9896 16.2163 14.8596 16.0763C14.6196 15.8063 14.6396 15.3963 14.8996 15.1563L18.3927 12.01L14.9035 8.99219C14.6335 8.75219 14.6235 8.34219 14.8635 8.07219C15.1035 7.81219 15.5135 7.79219 15.7835 8.03219L19.7627 11.49C20.0727 11.77 20.0727 12.25 19.7627 12.53L15.7796 16.1163C15.6496 16.2363 15.4996 16.2863 15.3396 16.2863ZM9.17655 7.99888C9.04655 7.85888 8.87655 7.78888 8.69655 7.78888C8.53655 7.78888 8.38655 7.83888 8.25655 7.95888L4.27342 11.5451C3.96342 11.8251 3.96342 12.3051 4.27342 12.5851L8.25265 16.0429C8.52265 16.2829 8.93265 16.2629 9.17265 16.0029C9.41265 15.7329 9.40265 15.3229 9.13265 15.0829L5.64341 12.0651L9.13655 8.91888C9.39655 8.67888 9.41655 8.26888 9.17655 7.99888Z"/></svg>

<svg xmlns="http://www.w3.org/2000/svg" fill="none" viewBox="0 0 24 24" focusable="false"><path fill="#74767B" fill-rule="evenodd" d="M2 5c0-1.66 1.34-3 3-3h14c1.65 0 3 1.34 3 3v14c0 1.65-1.35 3-3 3H5c-1.66 0-3-1.35-3-3zm13.33 11.28c-.18 0-.35-.07-.48-.21a.66.66 0 0 1 .04-.92l3.5-3.14-3.49-3.02a.65.65 0 0 1-.04-.92c.24-.26.65-.28.92-.04l3.98 3.46c.31.28.31.76 0 1.04l-3.99 3.58c-.13.12-.28.17-.44.17M9.17 7.99a.65.65 0 0 0-.48-.21c-.16 0-.31.05-.44.17l-3.98 3.59c-.31.28-.31.76 0 1.04l3.98 3.46c.27.24.68.22.92-.04a.65.65 0 0 0-.04-.92l-3.49-3.02 3.49-3.15c.26-.24.28-.65.04-.92"/></svg>
